X: 14522
T: Gan Ainm
R: jig
M: 6/8
K: Gmajor
|:E|D2 D DEG|B2 d BAG|A2 B AGE|GEB AGE|
DED DEG|B2 d BAG|g2 e dBG|AGF G2:|
|:d|g2 g ged|e2 g edB|DEG B2 D|EDB AGE|
[1 gag ged|e2 g edB|DEG BdB|AGF GB:|
[2 D2 D DEG|B2 d BAG|g2 e dBG|AGF G2||

